X:1
T:Title
%%score { ( 1 3 ) | ( 2 4 ) }
L:1/8
M:3/4
K:Bb
V:1 treble nm="Grand Piano"
V:3 treble 
V:2 bass 
V:4 bass 
V:1
 z2 z2[Q:1/4=100] [DF]>[EG] | [DF]3 [DB] [DB]>[Ec] | [Fd]2 [DB]2 A>B | c4 z2 |[M:2/4] [Fd]4 | %5
[M:1/4] [DF]>[EG] |[M:3/4] [DF]3 [DB] [DB]>[Ec] | [Fd]2 [DB]2 A>B | c4 z2 |[M:2/4] [DB]4[K:bass] | %10
[M:1/4][K:treble] [B,DB]>[B,FA] |[M:3/4] [B,EG]3 [B,FA] [B,GB]>[B,EG] | %12
 [B,DF]2 [F,B,D]2 [DB]>[Ec] | [Fd]3 [Fd] [Ge]>[Fd] |[M:2/4] d2 c2 |[M:1/4] c>c | %16
[M:3/4] [Fd]3 [Fd] [_Ad]>[Ad] | [Ge]2 G2 B>G | [DF]4 z2 |[M:2/4] [DB]4[K:bass] |] %20
V:2
 z2 z2 [B,,B,]>[B,,B,] | [B,,B,]3 [B,,F,] [B,,F,]>[B,,F,] | [B,,B,]2 [B,,F,]2 C>D | %3
 E->[F,E-] [F,E]2 D>E |[M:2/4] [B,,B,]>B,, B,,2 |[M:1/4] [B,,B,]>[B,,B,] | %6
[M:3/4] [B,,B,]3 [B,,F,] [B,,F,]>[B,,F,] | [B,,B,]2 [B,,F,]2 C>D | E->[F,E-] [F,E]2[K:treble] F>E | %9
[M:2/4][K:bass] [B,,F,]>B,, B,,2 |[M:1/4] B,,>B,, |[M:3/4] E,3 E, E,>E, | %12
 B,,2 B,,2 [B,,B,]>[B,,B,] | [B,,B,]3 [B,,B,] [B,,B,]>[B,,B,] |[M:2/4] [F,B,F]2 [F,A,F]2 | %15
[M:1/4] [F,A,F]>[F,A,F] |[M:3/4] [B,,B,]3 [B,,B,] [B,,B,]>[B,,B,] | %17
 [E,B,]2 [E,B,E]2[K:treble] G>E | F,>F, F,2 C>E |[M:2/4] [B,,F,]>B,, B,,2 |] %20
V:3
 x6 | x6 | x6 | z z/ A,/ A,2 B>c |[M:2/4] z z/ B,/ B,2 |[M:1/4] x2 |[M:3/4] x6 | x6 | %8
 z z/ A,/ A,2 d>c |[M:2/4] z z/[K:bass] F,/ F,2 |[M:1/4][K:treble] x2 |[M:3/4] x6 | x6 | x6 | %14
[M:2/4] x4 |[M:1/4] x2 |[M:3/4] x6 | x6 | B,>B, B,2 A>c |[M:2/4] z z/[K:bass] F,/ F,2 |] %20
V:4
 x6 | x6 | x6 | [F,A,]2 z2 z2 |[M:2/4] x4 |[M:1/4] x2 |[M:3/4] x6 | x6 | [F,A,]2 z2[K:treble] z2 | %9
[M:2/4][K:bass] x4 |[M:1/4] x2 |[M:3/4] x6 | x6 | x6 |[M:2/4] x4 |[M:1/4] x2 |[M:3/4] x6 | %17
 x4[K:treble] x2 | x6 |[M:2/4] x4 |] %20

